X:1
T:Mazurka
B:On Bouge tune book vol 1 no 3
M:3/4
L:1/8
N:originally in G
K:C
G2cBc2|G2ede2|fedcBc|dcBAG2|G2cBc2|G2ede2|fedcBd|1c2c2BA:|2c2c2ef||
g2gagf|e2c2de|f2fgfe|d4ef|g2gagf|e2c2de|fedcBd|1c2cdef:|2c6|]
<end>
<start>
